X: 243
%
U:~=!turn!
T: A Hundred Years Since
C:James Porteous
O:Scotland
B:Keith Norman MacDonald : "The Skye collection of the best reels & strathspeys extant" : 1887
Z:Ralph Palmer
R:Reel
M:C|
L:1/8
K:Eb
C | B,G,B,C E2 (EG) | TFEFG TFECE | B,G,B,C EFGc | BGFG E2 E :| d | edcB c2 ce | BGFE FECB |
(ed)cB (cd)ef | (gf)ed e2 ef | (gf)ed (ed)cB | (AG)FE TFECE | B,G,B,C EFGc | BGFG E2 E |]


